!!!!SEGMENT: pl-sa--l-1643--104_anonim--do-nas-przybadzcie-swieci-aniolowie.krn
!!!cenid: 16xx:1462
!!!COM: Anonim
!!!COM-rismID:
!!!CDT:
!!!CNT:
!!!OTL: Do nas przybądźcie, święci aniołowie
!!!PDT:
!!!AGN: Sacred
!!!SMS-siglum: PL-SA
!!!SMS-shelfmark: L 1643
!!!SMS-shelfwork: 104 W
!!!SMS-variant:
!!!SMS-altvar:
!!!NIFC-rismSourceID: 1001063752
!!!NIFC-islandoraID:
!!!URL-pdf-islandora:
!!!URL-scan:
!!!ONB-nifc: UWAGA: 8 ksiąg. Primi chori: 1mus Cantus (x), C 2dus (188-189), C 3tius (x), Bassus (x); Secondi chori: Primus Cantus (x), C 2dus (x), Altus (x), Bassus (x). UWAGA: Nie dodawać pustych linii, chyba że w rękopisie pojawiają się dodatkowe oznaczenia dotyczące pełnej obsady (a 4, a 8 itp.)
!!!AIN: 1 empty
!!!key:
**kern	**text	**text	**text	**text
*Iempty	*	*	*	*
*I"Cantus 2dus Primi Chori.	*	*	*	*
*clefC1	*	*	*	*
*k[b-]	*	*	*	*
*g:	*	*	*	*
*M2/2	*	*	*	*
*met(C|)	*	*	*	*
=1-	=1-	=1-	=1-	=1-
1dd	Do	W ma-	Wy-	On
=2-	=2-	=2-	=2-	=2-
2cc\	nas	-łeÿ	-nidz-	pan
2b-\	przi-	o-	-cie	wÿ-
=3-	=3-	=3-	=3-	=3-
1a	-bąc-	-ſo-	tesz	-so-
=4-	=4-	=4-	=4-	=4-
1a	-cie	-bie	iusz	-ki
=5-	=5-	=5-	=5-	=5-
0r	.	.	.	.
=6-	=6-	=6-	=6-	=6-
.	.	.	.	.
=7-	=7-	=7-	=7-	=7-
1r	.	.	.	.
=8-	=8-	=8-	=8-	=8-
2r	.	.	.	.
!LO:TX:a:t=P:problem=# below	!	!	!	!
2.cc#X\	Swien-	chle-	z wa-	co
=9-	=9-	=9-	=9-	=9-
.	.	.	.	.
!LO:TX:a:t=P:problem=# below	!	!	!	!
4cc#X\	-ci	-ba	-sze-	nie-
4b-\	a-	wi-	-go	-bo
4dd\	-nio-	-do-	daw-	nad
=10-	=10-	=10-	=10-	=10-
4ccny\	.	.	.	.
2dd\	.	.	.	.
4cc\	-ło-	-me-	-ne-	na-
=11-	=11-	=11-	=11-	=11-
2dd\	-wie,	-go,	-go,	-mi,
2r	.	.	.	.
=12-	=12-	=12-	=12-	=12-
0r	.	.	.	.
=13-	=13-	=13-	=13-	=13-
.	.	.	.	.
=14-	=14-	=14-	=14-	=14-
2b-\	Złącz-	skar-	wÿ-	sta-
4b-\	-cie	-bÿ	-so-	-wił
4b-\	sie	są	-kie	ÿ
=15-	=15-	=15-	=15-	=15-
2cc\	z na-	wszÿ-	mÿ-	u-
2cc,<\	-mi	-stkie	-sli	-słał
=16-	=16-	=16-	=16-	=16-
*	*ij	*ij	*ij	*ij
2cc\	złącz-	skar-	wÿ-	sta-
4cc\	-cie	-bÿ	-so-	-wił
4cc\	sie	są	-kie	ÿ
=17-	=17-	=17-	=17-	=17-
1b-	z na-	wszÿ-	mÿ-	u-
=18-	=18-	=18-	=18-	=18-
1cc	-mi	-stkie	-sli	-słał
*	*Xij	*Xij	*Xij	*Xij
=19-	=19-	=19-	=19-	=19-
0r	.	.	.	.
=20-	=20-	=20-	=20-	=20-
.	.	.	.	.
=21-	=21-	=21-	=21-	=21-
1r	.	.	.	.
=22-	=22-	=22-	=22-	=22-
2.dd\	Nie-	nie-	gma-	zło-
4dd\	-bies-	-ba	-chu	-te-
=23-	=23-	=23-	=23-	=23-
2cc\	-ci	wÿ-	na-	-mi
2b-\	du-	-so-	-gur-	gwia-
=24-	=24-	=24-	=24-	=24-
2a\	-cho-	-kie-	-ne-	-zda-
2a,<\	-wie	-go	-go	-mi
=25-	=25-	=25-	=25-	=25-
*	*ij	*ij	*ij	*ij
2.dd\	Nie-	nie-	gma-	zło-
4dd\	-bies-	-ba	-chu	-te-
=26-	=26-	=26-	=26-	=26-
2b-\	-ci	wÿ-	na-	-mi
2b-\	du-	-so-	-gur-	gwia-
=27-	=27-	=27-	=27-	=27-
0cc	-cho-	-kie-	-ne-	-zda-
=28-	=28-	=28-	=28-	=28-
.	.	.	.	.
=29-	=29-	=29-	=29-	=29-
1b-	-wie	-go	-go	-mi
*	*Xij	*Xij	*Xij	*Xij
=30-	=30-	=30-	=30-	=30-
2r	.	.	.	.
2dd\	Al-	nie-	ma-	chciał
=31-	=31-	=31-	=31-	=31-
2ee-X\	-bo-	-bem	-cie	bÿc
2dd\	-wiem	sie	na	s czło-
=32-	=32-	=32-	=32-	=32-
1cc	ma-	sta-	zie-	-wie-
=33-	=33-	=33-	=33-	=33-
2b-\	-cie	-ła	-mi	-kiem
2.cc\	tu	zie-	cze-	spo-
=34-	=34-	=34-	=34-	=34-
.	.	.	.	.
4cc\	pa-	-mia	-mu	-wi-
*custos:c	*	*	*	*
4b-\	-na	iusz	sie	-no-
!!LO:LB:g=original
4cc\	wa-	zni-	ra-	-wa-
=35-	=35-	=35-	=35-	=35-
1dd	-sze-	-zo-	-do-	-co-
=36-	=36-	=36-	=36-	=36-
2cc\	-go	-na	-wac	-nÿ
2r	.	.	.	.
=37-	=37-	=37-	=37-	=37-
00r	.	.	.	.
=38-	=38-	=38-	=38-	=38-
.	.	.	.	.
=39-	=39-	=39-	=39-	=39-
.	.	.	.	.
=40-	=40-	=40-	=40-	=40-
.	.	.	.	.
=41-	=41-	=41-	=41-	=41-
1r	.	.	.	.
=42-	=42-	=42-	=42-	=42-
2r	.	.	.	.
2.dd\	choc	iusz	swe-	dzi-
=43-	=43-	=43-	=43-	=43-
.	.	.	.	.
4dd\	nam	ieſt	-go	-wnie
4cc\	za-	u-	po-	zie-
4cc\	-krÿ-	-czÿ-	-we-	-dno-
=44-	=44-	=44-	=44-	=44-
1a	-te-	-nio-	-to-	-czo-
=45-	=45-	=45-	=45-	=45-
2b-,<\	-go	-na	-wać	-nÿ
*	*ij	*ij	*ij	*ij
1a\	choć	iusz	swe-	dzi-
=46-	=46-	=46-	=46-	=46-
.	.	.	.	.
2b-\	nam	ieſt	-go	-wnie
=47-	=47-	=47-	=47-	=47-
2g/	za-	u-	po-	zie-
2cc\	.	.	.	.
=48-	=48-	=48-	=48-	=48-
1a	-krÿ-	-czÿ-	-we-	-dno-
=49-	=49-	=49-	=49-	=49-
2.dd\	-te-	-ni-	-to-	-czo-
4ryy\	.	.	.	.
=50-	=50-	=50-	=50-	=50-
!LO:N:acc=#	!	!	!	!
0bn	-go	-na	-wać	-nÿ
*	*Xij	*Xij	*Xij	*Xij
=51-	=51-	=51-	=51-	=51-
.	.	.	.	.
=52|	=52|	=52|	=52|	=52|
*M3/2	*	*	*	*
0b-y	O-	.	.	.
=53-	=53-	=53-	=53-	=53-
.	.	.	.	.
1b-	-to	.	.	.
=54-	=54-	=54-	=54-	=54-
0cc	z ludz-	.	.	.
=55-	=55-	=55-	=55-	=55-
.	.	.	.	.
1b-	-mi	.	.	.
=56-	=56-	=56-	=56-	=56-
0a	miesz-	.	.	.
=57-	=57-	=57-	=57-	=57-
.	.	.	.	.
1g	-ka	.	.	.
=58-	=58-	=58-	=58-	=58-
0a	bog	.	.	.
=59-	=59-	=59-	=59-	=59-
.	.	.	.	.
1r	.	.	.	.
=60-	=60-	=60-	=60-	=60-
0.r	.	.	.	.
=61-	=61-	=61-	=61-	=61-
.	.	.	.	.
=62-	=62-	=62-	=62-	=62-
.	.	.	.	.
=63-	=63-	=63-	=63-	=63-
.	.	.	.	.
=64-	=64-	=64-	=64-	=64-
*M2/2	*	*	*	*
*met(C|)	*	*	*	*
2r	.	.	.	.
2cc\	złacz	.	.	.
=65-	=65-	=65-	=65-	=65-
2dd\	sie,	.	.	.
2r	.	.	.	.
=66-	=66-	=66-	=66-	=66-
2r	.	.	.	.
2dd\	s pod-	.	.	.
=67-	=67-	=67-	=67-	=67-
4cc\	-łą	.	.	.
4dd\	zie-	.	.	.
4ee-X\	-mią	.	.	.
4cc\	nie-	.	.	.
=68-	=68-	=68-	=68-	=68-
2dd\	-bo	.	.	.
2r	.	.	.	.
=69-	=69-	=69-	=69-	=69-
1r	.	.	.	.
=70-	=70-	=70-	=70-	=70-
2r	.	.	.	.
*	*ij	*	*	*
2dd\	s pod-	.	.	.
=71-	=71-	=71-	=71-	=71-
4cc\	-łą	.	.	.
4b-\	zie-	.	.	.
4cc\	-mią	.	.	.
4cc\	nie-	.	.	.
=72-	=72-	=72-	=72-	=72-
2dd\	-bo	.	.	.
*	*Xij	*	*	*
2r	.	.	.	.
=73-	=73-	=73-	=73-	=73-
1r	.	.	.	.
=74-	=74-	=74-	=74-	=74-
2r	.	.	.	.
2dd\	s-pod	.	.	.
=75-	=75-	=75-	=75-	=75-
2.cc\	-łą	.	.	.
*custos:c	*	*	*	*
4b-\	.	.	.	.
!!LO:LB:g=original
=76-	=76-	=76-	=76-	=76-
1cc	zie-	.	.	.
=77-	=77-	=77-	=77-	=77-
2.b-\	-mią	.	.	.
4cc\	.	.	.	.
=78-	=78-	=78-	=78-	=78-
1.dd	nie-	.	.	.
=79-	=79-	=79-	=79-	=79-
.	.	.	.	.
2a\	.	.	.	.
=80-	=80-	=80-	=80-	=80-
!LO:N:acc=#	!	!	!	!
00bn	-bo;	.	.	.
=-	=-	=-	=-	=-
*-	*-	*-	*-	*-
!!!RDF**kern: > = above
!!!RDF**kern: < = below
!!!ENC: Andrzej Gręziak
!!!END: 2021-10-30
!!!EED: Antoni Szymański
!!!EEV: 2021-11-03
